X: 10593
T: Doug MacPhee's Clog
R: hornpipe
M: 4/4
K: Gmajor
|:d>c|B2 G>D [B,B]>DG<B|d>G (3Bcd g>dB<d|c2 A>F D2 F/G/A/B/|c>Bc<d e>d^c<d|
(3BcB G>D [B,2B2] G<B|(3ded B>d g>dB<d|c2 A>F D>FA<c|B>GA<F G2:|
|:(3ABc|d2 (3Bcd g>dB<d|(3efe c>e a>fd<e|(3ded B>d (3gag B<d|c>B (3BAG A2 (3ABc|
d2 B>d g2 B<d|e2 c>e a>fd<e|(3fed B<d c>AF<D|G2 G<F G2:|

